X:236
T:I’ll make you fain to follow me TS.236
M:6/8
L:1/8
Q:3/8=110
S:Thomas Sands’ MS,1810,Lincolnshire
R:jig
O:England;Lincolnshire
Z:vmp.Ruairidh Greig, 2011
K:C
C|EGA c2e|dDDD2C|EGA cdc|BAB cGE|
F2dE2c|dDDD2C|EGAc2G|ECCC2:|
|:f|ced gec|eged2e|ega gec|gea gec|
ega gec|eged2G|EGAc2G|ECCC2:|]

